X: 20300
T: John Blessing's Delight
R: jig
M: 6/8
K: Gmajor
|:D|G2 G AGA|Bdd efg|G2 G AGA|BGE EDE|
G2 G AGA|Bdd efg|edB AGA|BGF G2:|
|:d|gfg efg|fdd def|gfg aga|bge e2 f|
gag efg|agf efg|edB AGA|BGF G2:|

